X: 13390
T: Flight Of Fancy
R: jig
M: 6/8
K: Gmajor
|:GAB FGE|DGA BAG|(3ABc A E2D|FGA dAF|
GAB FGE|DGA BAG|(3ABc A E2D|1 FAF G3:|2 FAF G2D||
|:DdB G2c|AFD B2G|E2G GAB|cBc A2B|
cBc ABG|AFG EFC|DEF GAB|1 cAF G2D:|2 cAF G3||

